X: 2314
T: Miss Mary Douglass's Reel
%R: reel
B: Niel Gow & Sons "A Second Collection of Strathspey Reels, etc." v.2 p.31 #4
Z: 2022 John Chambers <jc:trillian.mit.edu>
M: C|
L: 1/8
K: Bb
% - - - - - - - - - -
V: 1 staves=2
f |\
dBfB {e}d2TcB | cFdB Ac-c>e | dBGc ecAc | gecf dBB :| F (DF)BF (DF)TBA |
GF(ED) Cc-cd |[1 (DF)BF (DF)BA GFTED B,B-B :|[2 (DF)BF DFBd | TcAFA BB,B, |]
% - - - - - - - - - -
V: 2 clef=bass middle=d
z | B2b2 B2=e2 | f2F2 f2A2 | B2e2 c2f2 | e2f2 b2B :| z | B2d2 B2d2 |
e2B2 f2F2 |[1 B2d2 b2f2 | e2f2 B2B :|[2 B2f2 b2B2 | f2F2 B2B |]


